packages/assets/static/images/icons/lg-hard-hat.svg

<svg width="24" height="24" viewBox="0 0 24 24" xmlns="http://www.w3.org/2000/svg" fill="currentColor" aria-hidden="true"> <path d="M21.875 13.9125V12.75C21.8698 10.8579 21.2945 9.01132 20.2242 7.45104C19.154 5.89075 17.6383 4.68921 15.875 4.00313V3.75C15.875 3.50377 15.8265 3.25995 15.7323 3.03247C15.638 2.80498 15.4999 2.59828 15.3258 2.42417C15.1517 2.25006 14.945 2.11195 14.7175 2.01773C14.49 1.9235 14.2462 1.875 14 1.875H11C10.5027 1.875 10.0258 2.07254 9.67418 2.42417C9.32254 2.77581 9.125 3.25272 9.125 3.75V4.00313C7.36168 4.68921 5.84605 5.89075 4.77576 7.45104C3.70547 9.01132 3.1302 10.8579 3.125 12.75V13.9125C2.70149 13.9989 2.32085 14.2291 2.04751 14.5639C1.77417 14.8988 1.62491 15.3178 1.625 15.75V18C1.625 18.4973 1.82254 18.9742 2.17417 19.3258C2.52581 19.6775 3.00272 19.875 3.5 19.875H21.5C21.9973 19.875 22.4742 19.6775 22.8258 19.3258C23.1775 18.9742 23.375 18.4973 23.375 18V15.75C23.3751 15.3178 23.2258 14.8988 22.9525 14.5639C22.6791 14.2291 22.2985 13.9989 21.875 13.9125ZM19.625 12.75V13.875H15.875V6.47531C17.0062 7.08773 17.9515 7.99368 18.6114 9.09786C19.2713 10.202 19.6214 11.4637 19.625 12.75ZM13.625 4.125V13.875H11.375V4.125H13.625ZM9.125 6.47531V13.875H5.375V12.75C5.37857 11.4637 5.72872 10.202 6.38862 9.09786C7.04852 7.99368 7.99379 7.08773 9.125 6.47531ZM21.125 17.625H3.875V16.125H21.125V17.625Z"/> </svg>

<svg viewBox="0 0 24 24" xmlns="http://www.w3.org/2000/svg" aria-hidden="true" fill="currentColor"><path d="M21.875 13.913V12.75a9.41 9.41 0 0 0-6-8.747V3.75A1.875 1.875 0 0 0 14 1.875h-3A1.875 1.875 0 0 0 9.125 3.75v.253a9.41 9.41 0 0 0-6 8.747v1.162a1.875 1.875 0 0 0-1.5 1.838V18A1.875 1.875 0 0 0 3.5 19.875h18A1.875 1.875 0 0 0 23.375 18v-2.25a1.875 1.875 0 0 0-1.5-1.838m-2.25-1.163v1.125h-3.75v-7.4a7.16 7.16 0 0 1 3.75 6.275m-6-8.625v9.75h-2.25v-9.75zm-4.5 2.35v7.4h-3.75V12.75a7.16 7.16 0 0 1 3.75-6.275m12 11.15H3.875v-1.5h17.25z"/></svg>
